package/converter/svg/duotone/conveyor-belt-boxes.svg

<svg xmlns="http://www.w3.org/2000/svg" viewBox="0 0 640 512"><!-- Font Awesome Pro 6.0.0-alpha2 by @fontawesome - https://fontawesome.com License - https://fontawesome.com/license (Commercial License) --><defs><style>.fa-secondary{opacity:.4}</style></defs><path d="M288 0H96C78.327 0 64 14.327 64 32V224C64 241.673 78.327 256 96 256H288C305.673 256 320 241.673 320 224V32C320 14.327 305.673 0 288 0ZM544 64H416C398.327 64 384 78.327 384 96V224C384 241.673 398.327 256 416 256H544C561.673 256 576 241.673 576 224V96C576 78.327 561.673 64 544 64Z" class="fa-secondary"/><path d="M544 320H96C41.6 320 0 361.6 0 416S41.6 512 96 512H544C598.4 512 640 470.4 640 416S598.4 320 544 320ZM128 448C108.8 448 96 435.2 96 416S108.8 384 128 384S160 396.8 160 416S147.2 448 128 448ZM320 448C300.8 448 288 435.2 288 416S300.8 384 320 384S352 396.8 352 416S339.2 448 320 448ZM512 448C492.8 448 480 435.2 480 416S492.8 384 512 384S544 396.8 544 416S531.2 448 512 448Z" class="fa-primary"/></svg>

<svg xmlns="http://www.w3.org/2000/svg" viewBox="0 0 640 512"><!--! Font Awesome Pro 6.6.0 by @fontawesome - https://fontawesome.com License - https://fontawesome.com/license (Commercial License) Copyright 2024 Fonticons, Inc. --><defs><style>.fa-secondary{opacity:.4}</style></defs><path class="fa-secondary" d="M0 416c0 53 43 96 96 96l448 0c53 0 96-43 96-96s-43-96-96-96L96 320c-53 0-96 43-96 96zm160 0a32 32 0 1 1 -64 0 32 32 0 1 1 64 0zm192 0a32 32 0 1 1 -64 0 32 32 0 1 1 64 0zm192 0a32 32 0 1 1 -64 0 32 32 0 1 1 64 0z"/><path class="fa-primary" d="M96 0C78.3 0 64 14.3 64 32l0 192c0 17.7 14.3 32 32 32l192 0c17.7 0 32-14.3 32-32l0-192c0-17.7-14.3-32-32-32L96 0zM416 64c-17.7 0-32 14.3-32 32l0 128c0 17.7 14.3 32 32 32l128 0c17.7 0 32-14.3 32-32l0-128c0-17.7-14.3-32-32-32L416 64z"/></svg>
